X:16016
T:Pretty Maggie Morrisey
R:Hornpipe
C:Trad.
O:England
Z:Paul Hardy's Session Tunebook 2022 (see www.paulhardy.net). Creative Commons cc by-nc-sa licenced.
M:4/4
L:1/8
Q:1/4=120
K:G
Bc|"G"dBGB "D"cAFD|"G"(3GFG "D"AF "G"GABc|dgfg "Em"efge|"G"dBGB "D7"A2 Bc|
"G"dBGB "D7"cAFA|"G"(3GFG "D"AF "G"GABc|dgfg "Am"ec"D"AF|"G"G2B2 G2:|
|:Bc|"G"dgfg "C"egfg|"G"dgfg "C"egfg|"G"dgfg "C"efge|"G"dBGB "D7"A2 Bc|
"G"dBGB "D7"cAFA|"G"(3GFG "D"AF "G"GABc|dgfg "Am"ec"D7"AF|"G"G2B2 G2:|

